public/resource/img/game/feedback/upvote.svg

<svg xmlns="http://www.w3.org/2000/svg" xmlns:xlink="http://www.w3.org/1999/xlink" viewBox="0 0 32 32" stroke="none" stroke-width="0"><path d="M16,0 C24.8363636,0 32,7.16363636 32,16 C32,24.8363636 24.8363636,32 16,32 C7.16363636,32 0,24.8363636 0,16 C0,7.16363636 7.16363636,0 16,0 Z M21.8181818,17.0909091 C21.8181818,16.4 21.2727273,15.8181818 20.5818182,15.8181818 C21.2727273,15.8181818 21.8181818,15.2727273 21.8181818,14.5818182 C21.8181818,13.8909091 21.2727273,13.3454545 20.5818182,13.3454545 L15.6727273,13.3454545 L16.6181818,10.8363636 C17.1272727,9.45454545 16.4727273,7.96363636 15.1272727,7.45454545 C13.7818182,6.98181818 12.2909091,7.67272727 11.7818182,9.05454545 L10.1818182,13.3454545 L10.1818182,23.3090909 L15.4181818,23.3090909 L20.5818182,23.3090909 C21.2727273,23.3090909 21.8181818,22.7272727 21.8181818,22.0363636 C21.8181818,21.3454545 21.2727273,20.8 20.5818182,20.8 C21.2727273,20.8 21.8181818,20.2545455 21.8181818,19.5636364 C21.8181818,18.8727273 21.2727273,18.3272727 20.5818182,18.3272727 C21.2727273,18.3272727 21.8181818,17.7818182 21.8181818,17.0909091 Z" style="fill: rgb(178, 178, 178);"></path></svg>

<svg xmlns="http://www.w3.org/2000/svg" stroke-width="0" viewBox="0 0 32 32"><path fill="#b2b2b2" d="M16 0c8.836 0 16 7.164 16 16s-7.164 16-16 16S0 24.836 0 16 7.164 0 16 0zm5.818 17.09c0-.69-.545-1.272-1.236-1.272.69 0 1.236-.545 1.236-1.236s-.545-1.237-1.236-1.237h-4.91l.946-2.509c.51-1.381-.145-2.872-1.49-3.381a2.635 2.635 0 0 0-3.346 1.6l-1.6 4.29v9.964H20.582c.69 0 1.236-.582 1.236-1.273 0-.69-.545-1.236-1.236-1.236.69 0 1.236-.545 1.236-1.236s-.545-1.237-1.236-1.237c.69 0 1.236-.545 1.236-1.236z"/></svg>
